flaticon/arrows/spin-3.svg

<svg xmlns="http://www.w3.org/2000/svg" width="32" height="32" viewBox="0 0 24 24">
    <path d="M12.898438 1.617188C13.1875 1.617188 13.484375 1.636719 13.777344 1.664062 13.792969 1.667969 13.808594 1.667969 13.824219 1.667969 14.058594 1.667969 14.257812 1.492188 14.28125 1.253906 14.308594 1 14.125.773438 13.871094.746094 13.550781.714844 13.226562.695312 12.90625.691406 12.90625.691406 12.902344.691406 12.902344.691406 12.648438.691406 12.445312.894531 12.441406 1.148438 12.4375 1.40625 12.640625 1.613281 12.898438 1.617188zM10.164062 1.957031C10.199219 1.957031 10.242188 1.953125 10.28125 1.941406 10.5625 1.867188 10.851562 1.804688 11.140625 1.753906 11.394531 1.710938 11.5625 1.472656 11.519531 1.222656 11.476562.972656 11.238281.804688 10.984375.84375 10.671875.898438 10.355469.96875 10.042969 1.050781 9.796875 1.117188 9.652344 1.367188 9.714844 1.613281 9.769531 1.820312 9.957031 1.957031 10.164062 1.957031zM15.503906 2.003906C15.785156 2.085938 16.066406 2.183594 16.335938 2.289062 16.390625 2.3125 16.449219 2.320312 16.503906 2.320312 16.6875 2.320312 16.863281 2.210938 16.933594 2.03125 17.027344 1.792969 16.914062 1.523438 16.675781 1.429688 16.378906 1.3125 16.070312 1.207031 15.761719 1.117188 15.515625 1.046875 15.261719 1.1875 15.1875 1.429688 15.117188 1.675781 15.257812 1.933594 15.503906 2.003906zM22.238281 9.453125C22.289062 9.742188 22.332031 10.035156 22.359375 10.324219 22.382812 10.5625 22.582031 10.742188 22.816406 10.742188 22.832031 10.742188 22.847656 10.742188 22.863281 10.742188 23.113281 10.71875 23.300781 10.492188 23.277344 10.238281 23.25 9.921875 23.203125 9.597656 23.144531 9.285156 23.097656 9.03125 22.859375 8.871094 22.605469 8.914062 22.355469 8.960938 22.191406 9.203125 22.238281 9.453125zM21.757812 7.761719C21.828125 7.941406 22.003906 8.054688 22.1875 8.054688 22.246094 8.054688 22.300781 8.046875 22.355469 8.023438 22.59375 7.933594 22.710938 7.667969 22.621094 7.429688 22.503906 7.132812 22.375 6.835938 22.230469 6.546875 22.117188 6.316406 21.84375 6.222656 21.613281 6.335938 21.386719 6.449219 21.292969 6.726562 21.40625 6.953125 21.535156 7.21875 21.65625 7.488281 21.757812 7.761719zM7.617188 3.019531C7.695312 3.019531 7.777344 3 7.847656 2.957031 8.101562 2.808594 8.363281 2.667969 8.628906 2.546875 8.859375 2.4375 8.957031 2.160156 8.847656 1.929688 8.738281 1.699219 8.464844 1.601562 8.234375 1.710938 7.945312 1.847656 7.660156 1.996094 7.382812 2.160156 7.160156 2.289062 7.089844 2.570312 7.21875 2.792969 7.304688 2.9375 7.457031 3.019531 7.617188 3.019531zM18.394531 2.300781C18.179688 2.167969 17.894531 2.230469 17.757812 2.445312 17.625 2.664062 17.6875 2.949219 17.902344 3.082031 18.148438 3.238281 18.394531 3.40625 18.628906 3.585938 18.710938 3.648438 18.808594 3.679688 18.90625 3.679688 19.046875 3.679688 19.183594 3.617188 19.273438 3.5 19.429688 3.296875 19.390625 3.007812 19.1875 2.851562 18.933594 2.65625 18.664062 2.472656 18.394531 2.300781zM22.375 14.386719C22.136719 14.296875 21.871094 14.417969 21.78125 14.65625 21.679688 14.929688 21.5625 15.199219 21.433594 15.464844 21.324219 15.695312 21.421875 15.972656 21.648438 16.082031 21.714844 16.113281 21.78125 16.128906 21.851562 16.128906 22.019531 16.128906 22.1875 16.03125 22.265625 15.867188 22.40625 15.578125 22.535156 15.277344 22.644531 14.980469 22.734375 14.738281 22.613281 14.472656 22.375 14.386719zM22.863281 11.664062C22.605469 11.636719 22.386719 11.832031 22.363281 12.085938 22.339844 12.375 22.300781 12.667969 22.246094 12.957031 22.203125 13.210938 22.367188 13.449219 22.621094 13.496094 22.648438 13.5 22.675781 13.5 22.703125 13.5 22.921875 13.5 23.117188 13.34375 23.15625 13.121094 23.210938 12.804688 23.253906 12.484375 23.285156 12.164062 23.304688 11.910156 23.117188 11.6875 22.863281 11.664062zM20.53125 16.976562C20.355469 17.210938 20.171875 17.445312 19.976562 17.664062 19.808594 17.855469 19.828125 18.144531 20.019531 18.3125 20.109375 18.390625 20.214844 18.429688 20.324219 18.429688 20.453125 18.429688 20.582031 18.375 20.671875 18.273438 20.882812 18.03125 21.085938 17.78125 21.273438 17.519531 21.425781 17.3125 21.378906 17.023438 21.175781 16.875 20.96875 16.722656 20.679688 16.769531 20.53125 16.976562zM20.53125 16.976562"/>
    <path d="M5.128906 4.332031C5.152344 4.386719 5.1875 4.4375 5.230469 4.480469 5.273438 4.523438 5.324219 4.558594 5.378906 4.578125 5.433594 4.601562 5.496094 4.617188 5.554688 4.617188L9.707031 4.617188C9.964844 4.617188 10.171875 4.410156 10.171875 4.152344 10.171875 3.898438 9.964844 3.691406 9.707031 3.691406L6.570312 3.691406C6.585938 3.566406 6.554688 3.433594 6.464844 3.332031 6.351562 3.195312 6.175781 3.152344 6.015625 3.1875L6.015625.460938C6.015625.207031 5.808594 0 5.554688 0 5.300781 0 5.09375.207031 5.09375.460938L5.09375 4.152344C5.09375 4.152344 5.09375 4.152344 5.09375 4.15625 5.09375 4.214844 5.105469 4.273438 5.128906 4.332031zM20.480469 5.457031C20.574219 5.578125 20.710938 5.640625 20.851562 5.640625 20.949219 5.640625 21.046875 5.613281 21.128906 5.550781 21.332031 5.394531 21.375 5.105469 21.21875 4.902344 21.027344 4.644531 20.820312 4.394531 20.605469 4.160156 20.433594 3.96875 20.140625 3.957031 19.953125 4.128906 19.765625 4.296875 19.75 4.589844 19.921875 4.777344 20.117188 4.996094 20.304688 5.222656 20.480469 5.457031zM18.652344 19.421875C18.597656 19.398438 18.539062 19.382812 18.476562 19.382812L14.324219 19.382812C14.070312 19.382812 13.863281 19.589844 13.863281 19.847656 13.863281 20.101562 14.070312 20.308594 14.324219 20.308594L17.25 20.308594C15.550781 21.640625 13.480469 22.375 11.296875 22.382812 8.71875 22.402344 6.269531 21.398438 4.445312 19.570312.859375 15.984375.6875 10.171875 4.054688 6.332031 4.222656 6.140625 4.207031 5.851562 4.015625 5.683594 3.824219 5.515625 3.53125 5.535156 3.363281 5.722656-.328125 9.925781-.136719 16.292969 3.792969 20.222656 5.78125 22.214844 8.425781 23.308594 11.246094 23.308594 11.265625 23.308594 11.28125 23.308594 11.300781 23.308594 13.777344 23.296875 16.125 22.441406 18.015625 20.886719L18.015625 23.539062C18.015625 23.792969 18.222656 24 18.476562 24 18.734375 24 18.9375 23.792969 18.9375 23.539062L18.9375 19.847656C18.9375 19.785156 18.925781 19.726562 18.902344 19.667969 18.855469 19.558594 18.765625 19.464844 18.652344 19.421875zM18.652344 19.421875"/>
</svg>

<svg xmlns="http://www.w3.org/2000/svg" width="32" height="32" viewBox="0 0 24 24">
    <path d="M12.898 1.617a9.535 9.535 0 0 1 .926.051.458.458 0 0 0 .457-.414.461.461 0 0 0-.41-.508c-.32-.031-.644-.05-.965-.055h-.004a.461.461 0 0 0-.46.457.46.46 0 0 0 .456.47zm0 0M10.164 1.957a.421.421 0 0 0 .117-.016c.281-.074.57-.136.86-.187a.46.46 0 0 0 .379-.531.468.468 0 0 0-.536-.38c-.312.055-.629.126-.941.208a.463.463 0 0 0-.328.562.463.463 0 0 0 .45.344zm0 0M15.504 2.004c.281.082.562.18.832.285a.46.46 0 0 0 .34-.86 10.491 10.491 0 0 0-.914-.312.466.466 0 0 0-.575.313c-.07.246.07.504.317.574zm0 0M22.238 9.453c.051.29.094.582.121.871a.461.461 0 0 0 .457.418h.047a.464.464 0 0 0 .414-.504 9.809 9.809 0 0 0-.132-.953.462.462 0 0 0-.906.168zm0 0M21.758 7.762a.464.464 0 0 0 .597.261.46.46 0 0 0 .266-.593 11.034 11.034 0 0 0-.39-.883.459.459 0 1 0-.825.406c.13.266.25.535.352.809zm0 0M7.617 3.02c.078 0 .16-.02.23-.063.255-.148.516-.289.782-.41a.464.464 0 0 0 .219-.617.46.46 0 0 0-.614-.22c-.289.138-.574.286-.851.45a.46.46 0 0 0 .234.86zm0 0M18.395 2.3a.466.466 0 0 0-.637.145.464.464 0 0 0 .144.637c.246.156.493.324.727.504a.46.46 0 0 0 .559-.734 11.038 11.038 0 0 0-.793-.551zm0 0M22.375 14.387a.461.461 0 0 0-.594.27 9.16 9.16 0 0 1-.347.808.466.466 0 0 0 .418.664.463.463 0 0 0 .414-.262c.14-.289.27-.59.379-.887a.458.458 0 0 0-.27-.593zm0 0M22.863 11.664a.458.458 0 0 0-.5.422 8.32 8.32 0 0 1-.117.871.465.465 0 0 0 .375.54c.027.003.055.003.082.003a.46.46 0 0 0 .453-.379c.055-.316.098-.637.13-.957a.466.466 0 0 0-.423-.5zm0 0M20.531 16.977c-.176.234-.36.468-.554.687a.458.458 0 0 0 .043.648.46.46 0 0 0 .652-.039c.21-.242.414-.492.601-.753a.46.46 0 1 0-.742-.543zm0 0"/>
    <path d="M5.129 4.332a.479.479 0 0 0 .426.285h4.152a.463.463 0 1 0 0-.926H6.57a.454.454 0 0 0-.554-.503V.46a.462.462 0 0 0-.922 0v3.695a.47.47 0 0 0 .035.176zm0 0M20.48 5.457a.466.466 0 0 0 .649.094.462.462 0 0 0 .09-.649 9.37 9.37 0 0 0-.614-.742.46.46 0 0 0-.652-.031.458.458 0 0 0-.031.648c.195.22.383.446.558.68zm0 0M18.652 19.422a.444.444 0 0 0-.175-.04h-4.153a.463.463 0 0 0 0 .927h2.926a9.66 9.66 0 0 1-5.953 2.074 9.537 9.537 0 0 1-6.852-2.813C.86 15.984.687 10.172 4.055 6.332a.458.458 0 0 0-.04-.648.466.466 0 0 0-.652.039c-3.691 4.203-3.5 10.57.43 14.5a10.452 10.452 0 0 0 7.453 3.086h.055a10.602 10.602 0 0 0 6.715-2.422v2.652a.462.462 0 0 0 .922 0v-3.691a.454.454 0 0 0-.285-.426zm0 0"/>
</svg>
